X: 21315
T: Kenmay House
R: barndance
M: 4/4
K: Dmajor
(3ABc|:d2 d>d c2 d2|A2 F2 D2 F>D|A2 A>A D2 F2|B2- B2- B>c d2|
[1 c2 c2 c>B A2|c2 c2 c2- c>A|G2 A>G F2 E>E|D>F B2 A2 B>c:|
[2 c2 c>c c>B A2|c2 c2 c2- c>B|A2 A>A B2 c2|d2- d2- d2||
|:F>G|A2 A>A d2 F>F|B2 A2 A2 F>G|A>A A>A A2 d>d|d2 c2 c2 E>F|
G2 G>G A2 G2|c2 G2 B2 D>D|C>D E>F G>A B>c|1 B2 A2 A2:|2 d2 d>d d2||

